X: 244
T: La Chaumiere
%R: reel
Z: 2014 John Chambers <jc:trillian.mit.edu>
B: Preston "Twenty four Country Dances for the Year 1794" p.102 #2
F: http://www.vwml.org/browse/browse-collections-dance-tune-books/browse-prestons1794# 2014-8-10
M: C|
L: 1/8
K: Bb
|:\
f3f gfed | dccc c3d |\
eded ecBA | B2B2 B4 :|
|:\
"_P"(FB).B.B (Fd).d.d | ecBA (B/A/B/c/) B2 |\
(FB).B.B (Fd).d.d | ecBA B4 :|
|:\
"_F"DF Bd cAB2 | FB df ecd2 |\
fdfd gege | dcBA B4 :|
% - - - - - - - - - - - - - - - - - - - - - - - - -
%%begintext align
%% The 1st Lady set to the 2d Gent.n & turn .| The
%% 1st Gent.n set to the 2d Lady & turn :| Lead down
%% the middle foot it :|. Allemand :|: Lead thro'
%% the bottom come up 1 Cu: .|| Lead thro the
%% top and cast off .||.
%%endtext
% - - - - - - - - - - - - - - - - - - - - - - - - -

%%sep 1 1 500
%%sep 1 1 500
